teeny/solid/sound-off.svg

<svg width="15" height="15" viewBox="0 0 15 15" fill="none" xmlns="http://www.w3.org/2000/svg">
<path d="M9 1.5C9 1.31989 8.90313 1.1537 8.74641 1.06494C8.58969 0.976173 8.39734 0.978558 8.24288 1.07118L3.36159 3.99805H1.5C0.671218 3.99805 0 4.66817 0 5.49731V9.5C0 10.3287 0.67074 11 1.5 11H3.36151L8.24275 13.9287C8.39722 14.0214 8.58959 14.0239 8.74635 13.9351C8.9031 13.8463 9 13.6801 9 13.5V1.5Z" fill="black"/>
<path d="M13.2075 7.49622L14.6211 8.90895L13.9142 9.61629L12.5001 8.20309L11.086 9.61629L10.3792 8.90895L11.7928 7.49622L10.3789 6.08324L11.0858 5.3759L12.5001 6.78934L13.9145 5.3759L14.6214 6.08324L13.2075 7.49622Z" fill="black"/>
</svg>

<svg viewBox="0 0 15 15" xmlns="http://www.w3.org/2000/svg"><g><path d="M9 1.5c0-.19-.1-.35-.26-.44 -.16-.09-.35-.09-.51 0L3.34 3.98H1.47c-.83 0-1.5.67-1.5 1.49v4c0 .82.67 1.5 1.5 1.5h1.86l4.88 2.92c.15.09.34.09.5 0 .15-.09.25-.26.25-.44v-12Z"/><path d="M13.2 7.49l1.41 1.41 -.71.7 -1.42-1.42 -1.42 1.41 -.71-.71 1.41-1.42 -1.42-1.42 .7-.71 1.41 1.41 1.41-1.42 .7.7 -1.42 1.41Z"/></g></svg>
